src/fonts/icomoon/icons/cols-sm.svg

<!-- Generated by IcoMoon.io -->
<svg version="1.1" xmlns="http://www.w3.org/2000/svg" width="964" height="1024" viewBox="0 0 964 1024">
<title></title>
<g id="icomoon-ignore">
</g>
<path d="M385.506 40.706h-385.506v385.506h385.506v-385.506zM963.783 40.706h-385.503v385.506h385.503v-385.506zM0 618.966h385.506v385.506h-385.506v-385.506zM963.783 618.966h-385.503v385.506h385.503v-385.506z"></path>
</svg>

<svg xmlns="http://www.w3.org/2000/svg" width="964" height="1024"><path d="M385.506 40.706H0v385.506h385.506V40.706zm578.277 0H578.28v385.506h385.503V40.706zM0 618.966h385.506v385.506H0V618.966zm963.783 0H578.28v385.506h385.503V618.966z"/></svg>
